X:1
T:Carnaval de Lanz
C:Lantzko Ihauteria  -  Trad., fichier abc : Bernard Loffet
L:1/8
Q:496
K:G
M:2/2
 z6[BG,]c |: [d2G,,2][dG,]e [dD,,]c[BD,]A | [G2G,,2]G,B B2[B2G,2] | [A2D,,2]D,B c2[d2D,2] | \
 [e2C,,2]C,2 d2[BD,]c | [d2G,,2][dG,]e [dD,,]c[BD,]A | [G2G,,2]G,B B2[B2G,2] | [A2D,,2]D,B c2[d2D,2] | \
|1 [G2G,,2]G,4[BG,]c :|2 [G2G,,2]G,4G,2 |: [G2G,,2]G,B [d2G,,2][g2G,2] | [g2G,,2][f2D,2] a2D,2 | \
 [A2D,,2]D,B c2[e2D,2] | [e2G,,2][d2G,2] B2G,2 | [G2G,,2]G,B [d2G,,2][g2G,2] | [g2G,,2][f2D,2] a2D,g | \
 [f2D,,2][d2D,2] e2[f2D,2] |1 [g2G,,2]G,4G,2 :|2 [g2G,,2]G,6 | \
W:Created with TablEdit http://www.tabledit.com/ by Bernard Loffet
